X: 1009
T: Washington County
C:Kenny Baker
B: jims roots
M:C|
L:1/8
Q: 1/4=100
K:A
V:1 
x[EA] [FA][GB] || "A"[A2c2][G2B2][F2A2] [G3/2B3/2][E/A/] | [FA][CF][FA][CF] [FA] [C2E2][EA] | [A2c2][G2B2] [F3A3] [=G_B]- | "E"[^G=B][B,D][DF][CE] [C/E/][D/F/][CE] [B,2D2]  |
"A"[^ce][Ac][Gc][Gc] [C2F2]- [C/F/][G,/D/][CE] | [A2c2] [G2B2] [F2A2] [G3/2B3/2][E/A/] | [FA][CF][FA][CF] [FA] [C2E2][EA] | [A3c3] [^GB] "A7"[=GA][Gc][G=B][=FB] |
"A"[C4A4] zA/B/ c/d/e/f/ ||[P:B part]"A"[ca][ec'][ec'][ec']  [ec']A/B/ c/d/e/f/ | [ca][ec'][ec'][ec'] [e3c'3 [e/c'/][e/c'/] |
d[df][df][df] [df]z3 | cB3 G3/2F/-F2 | "A"FC3- CA/B/ c/e/f/g/ | [ca][ec'][ec'][ec'] [e3c'3] [e/c'/][e/c'/] |
"D"f3/2d/ "F#"[c3/2f3/2][c/(f/] "Bm"[f3)B3] A | "D"f/=g/ a3 ^g f3/2g/ | "A"f [e3a3]- [ea]aec | "E"E[f3d3] [Ec][_E=c] [D2B2] | "A"[C8A8] |]
V:D2B2 
V:A2c2 
[G2B2][F3/2B3/2][G/B/] | [FB][EB] z[[CE] [B,E]z z[B/e/][B/e/] | [B/e/][B/e/][B/e/][B/e/] [G/B/][G/B/][G/B/][G/B/] "A7"[=c/e/][c/e/][c/e/][c/e/] [G/c/][G/c/] (3[c/e][A/c][c/e] |
V:e/c'/ 
[e/c'/][e/c'/] [e/c'/][e/c'/][e/c'/][e/c'/] [e/c'/][c/a/][c/a/] [c/a/][c/a/][c/a/][c/a/] | "E"[ca][Fd][Fd][Fd] [Fd]E/F/ G/A/B/c/ | d[dg][dg][dg] [dg]E/F/ G/A/B/c/ |
[e/c'/][e/c'/] [e/c'/][e/c'/][e/c'/][e/c'/] [e/c'/][e/c'/][e/c'/][e/c'/] [e/c'/][e/c'/][e/c'/][e/c'/] | [e/c'/][c/a/][c/a/][c/a/] [c/a/][c/a/][c/a/]f/ "A7"gb_ba |
% abcbook-tune_id 6298c29767407ffae3d61dc1


% abcbook-boost 0
% abcbook-tablature 
% abcbook-transpose 
% abcbook-lastupdated 1654178456666
% abcbook-soundfonts 
% abcbook-repeats 1


